X:1
T:Pencil Thin Mustache
T:Pencil Thin Mustache
T:Jimmy Buffett
T:Jimmy Buffett
T:All Rights Reserved
C:Jimmy Buffett
Z:All Rights Reserved
L:1/8
Q:1/4=120
M:4/4
K:C
V:1 treble 
%%MIDI program 0
%%MIDI control 7 100
%%MIDI control 10 64
V:1
"C""^120" CCDC"E7" B B2 ^G |"A7" AAA (A2 E3) |"D7" z DDD D D2 C |"G7" B,C^C D4 D | %4
w: Now they make new mo- vies in|old black and white *|With hap- py end- ings where|no- bo- dy fights, So|
w: ||||
"C" CCEG"E7" BA B2 |"A7" AAA A3 EE |"D7" D E2 G3 z E |"G7" G A2 B4 z | z6 z D |"C" CCEG"E7" BB B2 | %10
w: if you find your- self in that|nos- tal- gic rage, ho- ney|jump right up And|show your age.|I|wish * had * pen- cil thin|
w: ||||||
"A7" A2 E6 |"D7" z DDD"G7" G E3 |"C" C6 z C | C E3"E7" BB B2 |"A7" A2 A2 AEE_E |"D7" DD D2 D D2 C | %16
w: mus- tache,|The Bos- ton Black- ie|kind. A|two- toned Rick- y Ri-|car- `do jac- ket and an|au- to- graphed pic- ture of|
w: ||||||
"G7" B,C^CD- D4 |"C" cccc e c3 |"C7" ccce e4 |"F" cc c2 e c2 A |"D7" c2 c2 ecAG | %21
w: An- dy Di- vine. *|I re- mem- ber be- in'|buck- toothed and skin- ny|Writ- ing fan let- ters to|Sky's niece, Pen- ny. Oh I|
w: |||||
"C" cccc"E7" BB B2 |"A7" A2 E4 E2 |"D7" DDED"G7" GG E2 |"C" C6 EG |"A7" A2 A2 AA A2 | AAA A4 z | %27
w: wish I had a pen- cil thin|mus- tache, Then|I could solve some mys- ter- ies|too. Then it's|Band- stand, Dis- ney- land,|grow- in' up fast,|
w: ||||||
 AAAA A A3 | A6 AA |"G7" BBBG"Am7" A G2 G |"G7" BBBG"Am7" A G2 G |"C" cccG"Am7" A G2 G | %32
w: Drink- in' on a fake I.|D. Yeah, and|Ra- ma of the Jun- gle was|ev- 'ry- one's Ba- wa- na, And|on- ly jazz mu- sic- ians were|
w: |||||
"Dm7" cGAG"G7" AGED |"C" CCEG"E7" BB B2 |"A7" A2 F4 F2 |"D7" DDED"G7" GG E2 |"C" C6 z2 | %37
w: smok- ing ma- ri- ju- na, Yeah I|wish * had * pen- cil thin|mus- tache, Then|I could solve some mys- ter- ies|too.|
w: ||||~~~~~~~~~~~~(Alt.)|
"_(8 measures Interlude)" z8 | z4 z2 EG |"A7" A2 A2 AA A2 | AAA A4 z | AAAA AA A2 | A4 z2 z A | %43
w: |Then it's|flat- top, dir- ty bop,|cop- in' a feel,|Grub- bin' on the liv- ing room|~~~~~~~~~~~~~floor.~~(so~sore) They|
w: |Then it's|flat- top, sock * hop|down in the gym,|Danc- in' on the bas- ket- ball|floor. *|
"G7" BBBG"Am7" AGGG |"G7" BBBG"Am7" A G2 G |"C" cGAG"Am7" A2 G2 |"Dm7" EF^F"G7" G3 ED | %47
w: send you off to col- lege, try to|gain a lit- tle know- ledge When|all you want to do is|learn how to score. Yeah, but|
w: ||||
"C" CCEG"E7" B2 BB |"A7" AAA A3 E2 |"D7" DDDD DDDC |"G7" B,C^C D3 D2 |"C" CCEG"E7" B B2 B | %52
w: Now I'm get- tin' old, don't *|wear un- der- ware; I|don't * go to church * And I|don't cut my hair, But|I can go to mo- vies and|
w: * * * * (Alt.) get- tin'|gray in my hair, Don't|ride like Roy * Ro- gers, * or|dance like As- taire, *||
"A7" AA A2 E4 |"D7" DDED"G7" G2 E2 |"C" C4- CEED |"C" CCEG"E7" BB B2 |"A7" A2 E6 | %57
w: see it all there,|Just the way it used to|be. * That's why I|wish * had * pen- cil thin|mus- tache,|
w: |||||
"D7" z DDD"G7" G G3 |"C" c6 z C | C E3"E7" BB B2 |"A7" AA- A2 AEE_E |"D7" DD D2 D D2 C | %62
w: The Bos- ton Black- ie|kind. A|two- toned Rick- * Ri-|car- do ` jac- ket and an|au- to- graphed pic- ture of|
w: |||||
"G7" B,C^C D3 D2 |"C" cc c2 cccc |"C7" ccc e4 c |"F" c2 cA c2 cA |"D7" cccc c2 AG | %67
w: An- dy Di- vine, Oh|I could be an- y- one I|want- ed to be; A|suave Er- rol Flynn or the|Sheik of Ar- a- by If I|
w: |||||
"C" cccc"E7" BB B2 |"A7" A2 E4 E2 |"D7" DDED"G7" G E3 |"C" C6 D2 | E4"E7" E3 D |"A7" EDED E A2 A | %73
w: on- ly had a pen- cil thin|mus- tache, Then|I could do some mo- vies|too. Yeah,|Bryl- Cream, a|lit- tle dab 'll do ya' Oh,|
w: ||||||
"F" ccAE"G7" G A3 |"C" c6 z2 |] %75
w: I could do some mo- vies|too.|
w: ||

